assets/img/braze_icons/currency-ethereum-circle.svg

<svg fill="none" height="24" viewBox="0 0 24 24" width="24" xmlns="http://www.w3.org/2000/svg"><g fill="#801ed7"><path d="m8.1174 11.1367 3.8828 1.7648 3.8825-1.7648-3.8825-4.58857z"/><path clip-rule="evenodd" d="m12 1c-6.07513 0-11 4.92487-11 11 0 6.0751 4.92487 11 11 11 6.0751 0 11-4.9249 11-11 0-6.07513-4.9249-11-11-11zm.0002 3c.2942.00001.5734.12952.7634.35407l5.4998 6.50003c.2024.2392.281.5594.2123.8651s-.2766.5615-.5619.6912l-5.4998 2.5c-.2629.1195-.5647.1195-.8276 0l-5.50018-2.5c-.28524-.1297-.49323-.3855-.5619-.6912s.00992-.626.21232-.8652l5.50016-6.49996c.19-.22454.4693-.35405.7634-.35404zm-6.41057 11.086c.22853-.5028.82138-.7251 1.32416-.4966l5.08641 2.3119 5.086-2.3119c.5028-.2285 1.0956-.0062 1.3242.4965.2285.5028.0062 1.0957-.4966 1.3242l-5.4998 2.5c-.2629.1195-.5647.1195-.8276 0l-5.50019-2.5c-.50278-.2285-.72511-.8214-.49658-1.3241z" fill-rule="evenodd"/></g></svg>

<svg width="24" height="24" viewBox="0 0 24 24" fill="none" xmlns="http://www.w3.org/2000/svg">
<path d="M8.1174 11.1367L12.0002 12.9015L15.8827 11.1367L12.0002 6.54813L8.1174 11.1367Z" fill="#801ED7"/>
<path fill-rule="evenodd" clip-rule="evenodd" d="M12 1C5.92487 1 1 5.92487 1 12C1 18.0751 5.92487 23 12 23C18.0751 23 23 18.0751 23 12C23 5.92487 18.0751 1 12 1ZM12.0002 4C12.2944 4.00001 12.5736 4.12952 12.7636 4.35407L18.2634 10.8541C18.4658 11.0933 18.5444 11.4135 18.4757 11.7192C18.407 12.0249 18.1991 12.2807 17.9138 12.4104L12.414 14.9104C12.1511 15.0299 11.8493 15.0299 11.5864 14.9104L6.08622 12.4104C5.80098 12.2807 5.59299 12.0249 5.52432 11.7192C5.45565 11.4135 5.53424 11.0932 5.73664 10.854L11.2368 4.35404C11.4268 4.1295 11.7061 3.99999 12.0002 4ZM5.58963 15.086C5.81816 14.5832 6.41101 14.3609 6.91379 14.5894L12.0002 16.9013L17.0862 14.5894C17.589 14.3609 18.1818 14.5832 18.4104 15.0859C18.6389 15.5887 18.4166 16.1816 17.9138 16.4101L12.414 18.9101C12.1511 19.0296 11.8493 19.0296 11.5864 18.9101L6.08621 16.4101C5.58343 16.1816 5.3611 15.5887 5.58963 15.086Z" fill="#801ED7"/>
</svg>
